img/image/features8.svg

<svg width="72" height="76" viewBox="0 0 72 76" fill="none" xmlns="http://www.w3.org/2000/svg">
<g opacity="0.8">
<g opacity="0.8">
<path d="M40.5178 69H60.0202C61.0669 69 61.9154 67.9093 61.9154 66.5636V34.389C61.9154 33.6661 61.6657 32.9807 61.2339 32.518L49.5909 20.0375C49.2505 19.6724 48.8209 19.4723 48.3773 19.4723H19.0952C18.7158 19.4724 18.3452 19.6187 18.0314 19.8924L10.9157 26.0967C10.6596 26.3204 10.4499 26.621 10.305 26.9725C10.1601 27.324 10.0844 27.7156 10.0845 28.1133V53.1835C10.0845 54.1068 10.4905 54.9509 11.1332 55.3634L31.9849 68.7435C32.2477 68.9122 32.5375 69.0001 32.8314 69H36" stroke="#E5EEF7" stroke-width="2" stroke-miterlimit="10" stroke-linecap="round" stroke-linejoin="round"/>
<path d="M66.493 62.189H61.9155V40.4284H66.493V62.189Z" stroke="#E5EEF7" stroke-width="2" stroke-miterlimit="10" stroke-linecap="round" stroke-linejoin="round"/>
<path d="M70.9997 49.6013V65.0463C70.9997 66.6435 69.9908 67.9385 68.7462 67.9385C67.5015 67.9385 66.4927 66.6435 66.4927 65.0463V37.5711C66.4927 35.9738 67.5015 34.679 68.7462 34.679C69.9908 34.679 70.9997 35.9738 70.9997 37.5711V43.817" stroke="#E5EEF7" stroke-width="2" stroke-miterlimit="10" stroke-linecap="round" stroke-linejoin="round"/>
<path d="M3.25352 57.7932C2.00887 57.7932 1 56.4984 1 54.9011V27.4259C1 25.8285 2.00887 24.5337 3.25352 24.5337C4.49817 24.5337 5.50704 25.8285 5.50704 27.4259V54.9011C5.50704 56.4984 4.49817 57.7932 3.25352 57.7932Z" stroke="#E5EEF7" stroke-width="2" stroke-miterlimit="10" stroke-linecap="round" stroke-linejoin="round"/>
<path d="M31.4603 7.00017H45.0077C46.2522 7.00017 47.2612 8.29494 47.2612 9.8923C47.2612 11.4897 46.2522 12.7844 45.0077 12.7844H23.5992C22.3546 12.7844 21.3457 11.4897 21.3457 9.8923C21.3457 8.29494 22.3546 7.00017 23.5992 7.00017H26.9533" stroke="#E5EEF7" stroke-width="2" stroke-miterlimit="10" stroke-linecap="round" stroke-linejoin="round"/>
<path d="M36.4162 19.4724H32.1909V12.7844H36.4162V19.4724ZM5.50708 38.0294H10.0845V43.4521H5.50708V38.0294Z" stroke="#E5EEF7" stroke-width="2" stroke-miterlimit="10" stroke-linecap="round" stroke-linejoin="round"/>
<path d="M40.485 30.6636L30.3305 39.9869C30.2738 40.039 30.2264 40.1062 30.1918 40.1839C30.1571 40.2616 30.1359 40.348 30.1296 40.4371C30.1234 40.5263 30.1322 40.6162 30.1554 40.7006C30.1787 40.785 30.2159 40.862 30.2644 40.9263L32.817 44.3072C32.8773 44.3871 32.9198 44.4863 32.9401 44.5944C32.9604 44.7026 32.9578 44.8157 32.9325 44.9221L30.6608 54.4764C30.5275 55.0375 31.0173 55.5023 31.3961 55.1742L42.1254 45.8796C42.1835 45.8293 42.2324 45.7635 42.2687 45.6867C42.305 45.6098 42.328 45.5238 42.336 45.4345C42.3439 45.3452 42.3368 45.2548 42.3149 45.1694C42.2931 45.084 42.2571 45.0057 42.2094 44.9398L39.0494 40.5749C38.9897 40.4925 38.9486 40.3909 38.9303 40.2809C38.912 40.1709 38.9173 40.0566 38.9456 39.9502L41.2263 31.3709C41.3787 30.7979 40.8687 30.3115 40.485 30.6636Z" stroke="#E5EEF7" stroke-width="2" stroke-miterlimit="10" stroke-linecap="round" stroke-linejoin="round"/>
</g>
</g>
</svg>

<svg width="72" height="76" fill="none" xmlns="http://www.w3.org/2000/svg"><g opacity=".8" stroke="#E5EEF7" stroke-width="2" stroke-miterlimit="10" stroke-linecap="round" stroke-linejoin="round"><path d="M40.518 69H60.02c1.047 0 1.895-1.09 1.895-2.436V34.389c0-.723-.25-1.408-.681-1.871L49.59 20.038c-.34-.366-.77-.566-1.214-.566H19.095c-.38 0-.75.147-1.064.42l-7.115 6.205a2.342 2.342 0 0 0-.611.875c-.145.352-.22.744-.22 1.141v25.07c0 .924.405 1.768 1.048 2.18l20.852 13.38c.263.17.553.257.846.257H36M66.493 62.189h-4.577v-21.76h4.577v21.76ZM71 49.601v15.445c0 1.597-1.01 2.892-2.254 2.892-1.245 0-2.253-1.294-2.253-2.892V37.571c0-1.597 1.008-2.892 2.253-2.892S71 35.974 71 37.571v6.246M3.254 57.793C2.009 57.793 1 56.498 1 54.901V27.426c0-1.598 1.009-2.892 2.254-2.892 1.244 0 2.253 1.294 2.253 2.892V54.9c0 1.597-1.009 2.892-2.253 2.892ZM31.46 7h13.548c1.244 0 2.253 1.295 2.253 2.892 0 1.598-1.009 2.892-2.253 2.892H23.599c-1.244 0-2.253-1.294-2.253-2.892C21.346 8.295 22.355 7 23.599 7h3.354"/><path d="M36.416 19.472h-4.225v-6.688h4.225v6.688ZM5.507 38.03h4.578v5.423H5.506V38.03ZM40.485 30.664l-10.154 9.323a.596.596 0 0 0-.14.197.792.792 0 0 0-.036.517c.024.084.06.161.11.225l2.552 3.381c.06.08.103.18.123.287a.793.793 0 0 1-.008.328l-2.271 9.554c-.134.562.356 1.026.735.698l10.73-9.294a.584.584 0 0 0 .143-.193.791.791 0 0 0 .046-.517.678.678 0 0 0-.106-.23l-3.16-4.365a.697.697 0 0 1-.119-.294.79.79 0 0 1 .016-.33l2.28-8.58c.153-.573-.357-1.06-.741-.707Z"/></g></svg>
